SVG/get-pocket.svg

<?xml version="1.0" encoding="utf-8"?>
<!-- Generated by IcoMoon.io -->
<!DOCTYPE svg PUBLIC "-//W3C//DTD SVG 1.1//EN" "http://www.w3.org/Graphics/SVG/1.1/DTD/svg11.dtd">
<svg version="1.1" xmlns="http://www.w3.org/2000/svg" xmlns:xlink="http://www.w3.org/1999/xlink" width="13" height="14" viewBox="0 0 13 14">
<path fill="#444444" d="M12.227 1q0.508 0 0.859 0.355t0.352 0.863v4.055q0 1.375-0.531 2.625t-1.426 2.148-2.141 1.426-2.613 0.527q-1.375 0-2.621-0.527t-2.145-1.426-1.43-2.148-0.531-2.625v-4.055q0-0.5 0.359-0.859t0.859-0.359h11.008zM6.727 9.313q0.367 0 0.641-0.258l3.156-3.031q0.289-0.273 0.289-0.664 0-0.383-0.27-0.652t-0.652-0.27q-0.367 0-0.641 0.258l-2.523 2.422-2.523-2.422q-0.273-0.258-0.633-0.258-0.383 0-0.652 0.27t-0.27 0.652q0 0.398 0.281 0.664l3.164 3.031q0.258 0.258 0.633 0.258z"></path>
</svg>

<svg xmlns="http://www.w3.org/2000/svg" viewBox="0 0 13 14"><path d="M12.227 1q.508 0 .86.355t.35.863v4.055q0 1.375-.53 2.625t-1.426 2.148-2.14 1.426T6.727 13q-1.375 0-2.62-.528T1.96 11.046.53 8.898 0 6.273V2.218q0-.5.36-.86T1.217 1h11.008zm-5.5 8.313q.367 0 .64-.258l3.157-3.03q.29-.274.29-.665 0-.383-.27-.652t-.653-.27q-.366 0-.64.258L6.727 7.118 4.204 4.696q-.273-.258-.633-.258-.382 0-.65.27t-.27.652q0 .398.28.664l3.164 3.03q.258.26.633.26z" /></svg>
